X:1
T:Title
%%score { 1 | 2 }
L:1/8
Q:1/4=90
M:6/8
K:F
V:1 treble nm="Grand Piano"
V:2 bass 
V:1
 A2 A AGF | c2 [Ec] [FA]3 | [EG]2 [EG] [DF]2 [EG] | A6 | AAA AGF | c2 [Ec] [FA]2 [EG] | %6
w: H.~R.~Palmer * * * *||||||
 [DF]2 [DF] [FA]2 [CG] | [CF]6 | [EG]2 [EG] [EG][_E^F][=EG] | [GB]2 [FA] [EG]3 | A2 A A_A=A | %11
w: |||||
 c2 B A3 | c2 c c=Bc | def c2 A | F2 F [FA]2 G | F6 |] %16
w: |||||
V:2
 [F,CF]2 [F,CF] [F,CF][G,B,C][A,C] | [G,CE]2 [C,C] [F,C]3 | [C,B,]2 [C,B,] [D,A,]2 [C,C] | %3
 [F,CF]6 | [F,CF][F,CF][F,CF] [F,CF][G,B,C][A,C] | [G,CE]2 [C,C] [F,C]2 [C,B,] | %6
 [D,A,]2 [D,A,] [C,C]2 [C,B,] | [F,A,]6 | [C,C]2 [C,C] [C,C][C,C][C,C] | [C,C]2 [C,C] [C,C]3 | %10
 [F,CF]2 [F,CF] [F,CF][F,=B,F][F,CF] | [A,F]2[K:bass] [G,CE] [F,CF]3 | %12
 [F,A,F]2 [F,A,F] [F,A,F][F,_A,F][F,=A,F] | [F,B,F][F,CF][F,DF] [F,A,F]2 [F,C] | %14
 [D,A,D]2 [D,A,D] [C,C]2 [C,B,C] | [F,A,C]6 |] %16

